images/icon.svg

<svg enable-background="new 0 0 32 32" viewBox="0 0 32 32" xmlns="http://www.w3.org/2000/svg"><path d="m27 4v24c0 1.65-1.35 3-3 3h-16c-1.65 0-3-1.35-3-3v-24c0-1.65 1.35-3 3-3h16c1.65 0 3 1.35 3 3z" fill="#3f51b5"/><path d="m5 5v2h22v-2zm0 10v2h22v-2z" fill="#fff"/><g fill="#ffc10a"><circle cx="16" cy="21" r="2"/><path d="m13.5 27h-3.75c-.5522 0-1-.4478-1-1s.4478-1 1-1h3.75c.5522 0 1 .4478 1 1s-.4478 1-1 1z"/><path d="m22.25 27h-3.75c-.5522 0-1-.4478-1-1s.4478-1 1-1h3.75c.5522 0 1 .4478 1 1s-.4478 1-1 1z"/></g><path d="m5 7h22v8h-22z" fill="#2197f3"/></svg>

<?xml version="1.0" ?><!DOCTYPE svg  PUBLIC '-//W3C//DTD SVG 1.1//EN'  'http://www.w3.org/Graphics/SVG/1.1/DTD/svg11.dtd'><svg enable-background="new 0 0 32 32" version="1.1" viewBox="0 0 32 32" xml:space="preserve" xmlns="http://www.w3.org/2000/svg" xmlns:xlink="http://www.w3.org/1999/xlink"><g id="Desktop25"/><g id="Desktop24"/><g id="Desktop23"/><g id="Desktop22"/><g id="Desktop21"/><g id="Desktop20"/><g id="Desktop19"/><g id="Desktop18"/><g id="Desktop17"/><g id="Desktop16"/><g id="Desktop15"/><g id="Desktop14"/><g id="Desktop13"/><g id="Desktop12"/><g id="Desktop11"/><g id="Desktop10"/><g id="Desktop09"/><g id="Desktop08"/><g id="Desktop07"/><g id="Desktop06"><g><path d="M27,4v24c0,1.65-1.35,3-3,3H8c-1.65,0-3-1.35-3-3V4c0-1.65,1.35-3,3-3h16C25.65,1,27,2.35,27,4z" fill="#3F51B5"/></g><g><path d="M5,5v2h22V5H5z M5,15v2h22v-2H5z" fill="#FFFFFF"/></g><g><circle cx="16" cy="21" fill="#FFC10A" r="2"/></g><g><path d="M13.5,27H9.75c-0.5522,0-1-0.4478-1-1s0.4478-1,1-1h3.75c0.5522,0,1,0.4478,1,1S14.0522,27,13.5,27z" fill="#FFC10A"/></g><g><path d="M22.25,27H18.5c-0.5522,0-1-0.4478-1-1s0.4478-1,1-1h3.75c0.5522,0,1,0.4478,1,1S22.8022,27,22.25,27z" fill="#FFC10A"/></g><rect fill="#2197F3" height="8" width="22" x="5" y="7"/></g><g id="Desktop05"/><g id="Desktop04"/><g id="Desktop03"/><g id="Desktop02"/><g id="Desktop01"/></svg>
